X: 1
T: Kate Dalrymple  [A]
T: Jinglin' Johnnie
S: Atholl
C: Trad
R: reel
Z: 2019 John Chambers <jc:trillian.mit.edu>
B: BSFC Session Tune Book 2016 p.11
S: page from Concord Slow Scottish Session collection, handwritten by Barbara McOwen
L: 1/8
M: C|
K: A
|: "A"A2Ac "E7"B2Bc |  "A"A2Ac "E7"B2Bc | "A"A2ag "D"fedc | "E7"B2e2 "A"c2A2 :|
[| "A"e2ef     edcd |  "A"e2a2     e2c2 | "A"e2ef    edcd |  "A"e2a2    e2c2 |
|  "D"d2fd  "A"c2ec | "E7"B2Bc "E7"edcB | "A"A2ag "D"fedc | "E7"B2e2 "A"c2A2 |]
